X:1
T:Acushnet, CM
T:Acushnet, CM
T:The Modern Harp, 1847
T:Public Domain Courtesy of the Cyber Hymnal™
C:The Modern Harp, 1847
Z:Public Domain
Z:Courtesy of the Cyber Hymnal™
%%score ( 1 2 ) ( 3 4 )
L:1/8
Q:1/4=93
M:3/4
K:C
V:1 treble 
V:2 treble 
V:3 bass 
V:4 bass 
V:1
 ([CE]>[DF]) | [EG]>[EG] [EG]2 [Gc]2 | [FA]>[FA] [FA]2 [FA]2 | [EG][CE] [DF]2 [CE]2 | %4
 [B,D]4 ([CE]>[DF]) | [EG]>[EG] [EG]2 ([Ec][Ge]) | [Fd]>[Fc] [FA]2 [FA]2 | G[Ec] [Ec]2 B2 | %8
 [Ec]4 |] %9
V:2
 x2 | x6 | x6 | x6 | x6 | x6 | x6 | G x2 (D F) x | x4 |] %9
V:3
 [C,G,]2 | [C,C]>[C,C] [C,C]2 [E,C]2 | [F,C]>[F,C] [F,C]2 [F,C]2 | [C,C][C,G,] [C,G,]2 [C,G,]2 | %4
 [G,,G,]4 [C,G,]2 | [C,C]>[C,C] [C,C]2 [C,G,]2 | [F,A,]>[F,A,] [F,C]2 [F,C]2 | %7
 [E,C][C,G,] G,2 [G,,G,]2 | [C,G,]4 |] %9
V:4
 x2 | x6 | x6 | x6 | x6 | x6 | x6 | x2 G,2 x2 | x4 |] %9

